X: 2021
T: Yörük de Yaylasında
C: (Anonim)
O: Turkey
F: http://compmusic.upf.edu/node/140
N: nikriz--turku--oynak--yoruk_de--
N: makam= nikriz
N: form= turku
N: usul= oynak = 9/8
M: 9/8
L: 1/16
K: C _7/8B ^3/4f ^c 
Q: 1/4=168
%%MIDI tuningsystem comma53
.d2.d2 .d2c4BA GFG4 | A_2/4B =cBcB d2{e}d^c _7/8BAGF G4  | 
w:  ARANAĞME  |   | 
.d2.d2 .d2c4BA GFG4 | A_2/4B =cBcB d2{e}d^c _7/8BAGF G4  | 
w:  ARANAĞME  |   | 
g2g2 g2f3ea2 ag^2/4f3e | d4.e2 .d2z2 g3g g4  | \
w:  Yö rük  de  yay *  *  la *  sın  |  da  a man  yay la ya  | 
{a}g2f2 e2d3cB2 BAG4 | 
w:  *  ma *  *  dım  *  i ma *  nım    | 
d4e2 {g}=f3e d2c2 B3A  | G4 z2z2 =c4 c_3/4B_7/8B3A | \
w:  Dî vâ *  ne  *  gön *  lü  |  mü  ey le *  ye  | 
dc BAGF G8 z4  | 
w:  *  *  *  *  me *  dim    | 
d4 e2{g}=f3ed2 c2B3A | G4z2 z2=c4c_3/4B _7/8B3A  | \
w:  Dî vâ *  ne  *  gön *  lü  |  mü  ey le *  ye  | 
dcBA GFG8z4 | 
w:  *  *  *  *  me *  dim    | 
g4g2 f3e a2ag ^2/4f3e  | d4 e2d2 z2g3gg4 | \
w:  Di ye cek  *  *  sö *  zü  |  mü  a man  söy le ye  | 
{a}g2 f2e2 d3c B2BA G4  | 
w:  *  me *  *  dim  *  i ma *  nım    | 
d4 e2{g}=f3ed2 c2B3A | G4z2 z2=c4c_3/4B B3A  | \
w:  Yay la *  mam  *  yay *  la  |  da  kar  ol *  ma  | 
dcBA GFG8z4 | 
w:  yın *  *  *  ca  *  vay    | 
d4e2 {g}=f3e d2c2 B3A  | G4 z2z2 =c4 c_3/4BB3A | \
w:  Ey le *  mem  *  gön *  lü  |  mü  yâr  ol *  ma  | 
d=c BAGF G8 z4  | 
w:  *  *  *  *  yın *  ca    | 
.d2.d2 .d2c4BA GFG4 | A_2/4B =cBcB d2{e}d^c _7/8BAGF G4  | 
w:  ARANAĞME  |   | 
.d2.d2 .d2c4BA GFG4 | A_2/4B =cBcB d2{e}d^c _7/8BAGF G4  | 
w:  ARANAĞME  |   | 
g2g2 g2f3ea2 ag^2/4f3e | d4.e2 .d2z2 g3g g4  | \
w:  Yö rük  de  yay *  *  la *  sın  |  da  a man  yay la ya  | 
{a}g2f2 e2d3cB2 BAG4 | 
w:  *  ma *  *  dım  *  i ma *  nım    | 
d4e2 {g}=f3e d2c2 B3A  | G4 z2z2 =c4 c_3/4B_7/8B3A | \
w:  Dî vâ *  ne  *  gön *  lü  |  mü  ey le *  ye  | 
dc BAGF G8 z4  | 
w:  *  *  *  *  me *  dim    | 
d4 e2{g}=f3ed2 c2B3A | G4z2 z2=c4c_3/4B _7/8B3A  | \
w:  Dî vâ *  ne  *  gön *  lü  |  mü  ey le *  ye  | 
dcBA GFG8z4 | 
w:  *  *  *  *  me *  dim    | 
g4g2 f3e a2ag ^2/4f3e  | d4 e2d2 z2g3gg4 | \
w:  Di ye cek  *  *  sö *  zü  |  mü  a man  söy le ye  | 
{a}g2 f2e2 d3c B2BA G4  | 
w:  *  me *  *  dim  *  i ma *  nım    | 
d4 e2{g}=f3ed2 c2B3A | G4z2 z2=c4c_3/4B B3A  | \
w:  Yay la *  mam  *  yay *  la  |  da  kar  ol *  ma  | 
dcBA GFG8z4 | 
w:  yın *  *  *  ca  *  vay    | 
d4e2 {g}=f3e d2c2 B3A  | G4 z2z2 =c4 c_3/4BB3A | \
w:  Ey le *  mem  *  gön *  lü  |  mü  yâr  ol *  ma  | 
d=c BAGF G8 z4  | 
w:  *  *  *  *  yın *  ca    | 
|


